X: 82
T:Winning Ticket
C:Jerry Holland
Z:Added by Alf.warnock@rogers.com
M:6/8
L:1/8
K:G
E|DB,D G2A|BGB de=f|ecg dB3/2G|A/2B/2cB AGE|
DB,D G2A|BGB de=f|ecg dBA|[1 G3 G^FE:|[2 G3 GBd||
g2a bag|a^fd d2e|=f2g agf|ege cBc|
ded dBA|GBd g2=f|ecg dBA|[1 G3 GBd:|[2 G3 z3|]

